docs/.gitbook/assets/icon-train-16@dark.svg

<svg width="32" height="32" viewBox="0 0 16 16" fill="none" xmlns="http://www.w3.org/2000/svg">
<rect x="0" y="0" width="16" height="16" fill="#181c1f"/>
<path fill-rule="evenodd" clip-rule="evenodd" d="M2.72018 3.46044C2.87195 2.04899 4.08178 1 5.49773 1H10.5022C11.9181 1 13.128 2.04899 13.2797 3.46044L13.9899 10.0651C14.0882 10.979 13.4663 11.7662 12.6222 11.9563L13.874 13.834C14.1038 14.1786 14.0106 14.6443 13.666 14.874C13.3213 15.1038 12.8557 15.0107 12.6259 14.666L10.8486 12H5.15134L3.37399 14.666C3.14423 15.0107 2.67858 15.1038 2.33393 14.874C1.98928 14.6443 1.89615 14.1786 2.12592 13.834L3.37767 11.9563C2.53361 11.7662 1.91171 10.979 2.00998 10.0651L2.72018 3.46044ZM4.76158 10.5C4.75428 10.4999 4.747 10.4999 4.73971 10.5H3.7716C3.59342 10.5 3.48743 10.3552 3.50138 10.2255L4.21158 3.62082C4.27872 2.99648 4.82256 2.5 5.49773 2.5H10.5022C11.1774 2.5 11.7212 2.99648 11.7883 3.62082L12.4985 10.2255C12.5125 10.3552 12.4065 10.5 12.2283 10.5H11.2602L11.2518 10.4999L11.2383 10.5H4.76158ZM5 8C5 7.44772 5.44772 7 6 7C6.55228 7 7 7.44772 7 8C7 8.55228 6.55228 9 6 9C5.44772 9 5 8.55228 5 8ZM10 7C9.44772 7 9 7.44772 9 8C9 8.55228 9.44772 9 10 9C10.5523 9 11 8.55228 11 8C11 7.44772 10.5523 7 10 7Z" fill="#fff"/>
</svg>

<svg xmlns="http://www.w3.org/2000/svg" width="32" height="32" fill="none" viewBox="0 0 16 16"><path fill="#181c1f" d="M0 0h16v16H0z"/><path fill="#fff" fill-rule="evenodd" d="M2.72 3.46C2.872 2.05 4.082 1 5.498 1h5.004c1.416 0 2.626 1.049 2.778 2.46l.71 6.605a1.75 1.75 0 0 1-1.368 1.891l1.252 1.878a.75.75 0 1 1-1.248.832L10.849 12H5.15l-1.777 2.666a.75.75 0 1 1-1.248-.832l1.252-1.878a1.75 1.75 0 0 1-1.368-1.89zm2.042 7.04h-.99c-.179 0-.285-.145-.27-.274l.71-6.605c.067-.625.61-1.121 1.286-1.121h5.004c.675 0 1.22.496 1.286 1.12l.71 6.606c.014.13-.091.274-.27.274zM5 8a1 1 0 1 1 2 0 1 1 0 0 1-2 0m5-1a1 1 0 1 0 0 2 1 1 0 0 0 0-2" clip-rule="evenodd"/></svg>
